X: 14547
T: Gan Ainm
R: barndance
M: 4/4
K: Cmajor
Gcd|e2G2 Gcde|f2A2 Afga|b2B2 Bagf|eag^f gGcd|
e2G2 Gcde|f2A2 Aafd|cGe2 GFd2|1 c2c2 c:|2 c2c2 c3E||
A^GE^F GABc|c2A2 A2e2|edc2 cBA2|A2^G2 G2E2|
A^GE^F GABc|c2A2 A2a2|afdf e3^G|1 A2A2 A3E:|2 A2A2 AGcd||
e2G2 Gcde|f2A2 Afga|b2B2 Bagf|eag^f gGcd|
e2G2 Gcde|f2A2 Aafd|cGe2 GFd2|c2c2 c4|
K:F
a4 d'3a|c'2b2 bab2|e4 a3e|g2f2 fcAF|
a4 c'3a|e'2d'2 d'bge|fcfa c'3e|1 f2f2 f2z2:|2 f2f2 f||

